plugins/kotlin/frontend-independent/resources/org/jetbrains/kotlin/idea/icons/kotlin_multiplatform_project.svg

<svg xmlns="http://www.w3.org/2000/svg" width="16" height="16" viewBox="0 0 16 16">
  <defs>
    <linearGradient id="kotlin_multiplatform_project-a" x1="-16.836%" x2="76.219%" y1="91.94%" y2="-1.116%">
      <stop offset="10.75%" stop-color="#C757BC"/>
      <stop offset="21.38%" stop-color="#D0609A"/>
      <stop offset="42.54%" stop-color="#E1725C"/>
      <stop offset="60.48%" stop-color="#EE7E2F"/>
      <stop offset="74.3%" stop-color="#F58613"/>
      <stop offset="82.32%" stop-color="#F88909"/>
    </linearGradient>
  </defs>
  <g fill="none" fill-rule="evenodd">
    <g fill-rule="nonzero" transform="translate(1 1)">
      <path fill="#0EAEFF" d="M7.04651163,7 L7,7 L7,14 L0,14 L7.02333333,6.97666667 L7.04651163,7 Z"/>
      <polygon fill="#0EAEFF" points="0 0 7.023 0 0 7.583"/>
      <path fill="url(#kotlin_multiplatform_project-a)" d="M7.02333333,0 L14,0 L7.02333333,6.97666667 L0,14 L0,7.39666667 L7.02333333,0 Z"/>
    </g>
    <path fill="#9AA7B0" d="M13,16 L13,12 L9,12 L9,11 L14,11 L14,16 L13,16 Z M15,16 L15,10 L9,10 L9,9 L16,9 L16,16 L15,16 Z M9,13 L12,13 L12,16 L9,16 L9,13 Z"/>
  </g>
</svg>

<?xml version="1.0" encoding="utf-8"?>
<!-- Generator: Adobe Illustrator 24.1.2, SVG Export Plug-In . SVG Version: 6.00 Build 0)  -->
<svg version="1.1" id="Layer_1" xmlns="http://www.w3.org/2000/svg" xmlns:xlink="http://www.w3.org/1999/xlink" x="0px" y="0px"
	 viewBox="0 0 16 16" style="enable-background:new 0 0 16 16;" xml:space="preserve">
<style type="text/css">
	.st0{fill-rule:evenodd;clip-rule:evenodd;fill:#9AA7B0;}
	.st1{fill:url(#SVGID_1_);}
</style>
<path class="st0" d="M13,16v-4H9v-1h5v5H13z M15,16v-6H9V9h7v7H15z M9,13h3v3H9V13z"/>
<radialGradient id="SVGID_1_" cx="-33.7003" cy="109.2146" r="16.4772" gradientTransform="matrix(0.9733 0 0 -0.9733 47.3382 107.8764)" gradientUnits="userSpaceOnUse">
	<stop  offset="3.435144e-03" style="stop-color:#E44857"/>
	<stop  offset="0.4689" style="stop-color:#C711E1"/>
	<stop  offset="1" style="stop-color:#7F52FF"/>
</radialGradient>
<polygon class="st1" points="8,7.8 15,1 1,1 1,15 8,15 "/>
</svg>
